X: 131
T: the Black Slovin
%R: jig
Z: 2017 John Chambers <jc:trillian.mit.edu>
B: John Treat - "Gamut for the Fifes", 1779, p.13 #1
F: https://archive.org/details/GamutFortheFifes
M: 6/8
L: 1/8
K: G
% - - - - - - - - - - - - - - - - - - - - - - - - -
D |\
GAG AGA | BcB Bcd | GAG AGA | BcA B2A |\
B2A B2c | ded dcB | cAA A2 :|
Bc |\
ded dcB | cAB cde | dBG GBd | AFD D2E/F/ |\
G3 A3 | BcB AGA | BcB AGA | GGG G2 :|
% - - - - - - - - - - - - - - - - - - - - - - - - -
